X:24
T: Die Naehterin
N: Q0008A
O: Osteuropa, Tschechoslowakei, Sudetenland, Kuhlaendchen
R: Ballade, Geburt, Tod, Moral, Entfuehrung
M: 2/4
L: 1/16
K: G
 | G2G2GGG2 | c4A4 | B4z4 |
c2d2eed2 | c2c2c2
=F2 | G2A2B2d2 | A3A=F4 | G4z2
d2 | c3c=F4 | G4z4

@@@ Tune index: 653
